X:49
T: AUS ISTS MIT MIR
N: E0665
O: Europa, Mitteleuropa, Deutschland, Bergstrasse, Alsbach
R: Liebes - Lied, Trennung
M: 3/8
L: 1/8
K: D
 | A3 | A3 | FAA | F
AA | B3 | B3 | BBB | d
cB | A3 | A3 | AGG | A
FF | GEE | D
FA | AGG | A
FF | GEE | D2z

@@@ Tune index: 4362
